X: 1
M: none
L: 1/2
K: Dm
V: 1
D2 | E F | G2 || A2 | =B ^c | d A | =B2 || A2 | B G | A2 || F2 | E G | F F | D2 |]
V: 2 clef=bass octave=-1
F2 | G A | E2 || ^F2 | G A | ^F F | G2  || F2 | G E | F2 || D2 | C C | G, A, | D2 |]
